-----BEGIN PGP PUBLIC KEY BLOCK-----

mQINBFUAInYBEACrmKcXagNRlo1VjznrJZMMUh0rxUn2iK2wy9H5qrCo4EgMYahZ
ibBunSWB4RNeVQevzUm3eSyOixnt+BmGZbSYqKp8tJIXRRcnKhEtC62X+7NVMc7B
9uPu/aJ3HNqXrsQwBJUzZxzLMLg6obCyarhhHAYbWmfaafU4yNk3J4dGNKoZtHvz
bjnUtlsUAkCmuyt3MsUuSYz34BviRLSEZEKW6xNoyQmD9dUhQ5exBuTPjtmdTf+x
gOKpBluRkJ4TADGlWf42lIkaI+8DYRj1R8eQdLFwS7sDTu/MMPceKU7nTWOoj8HF
3xXRJ+bJbpOJXZFEzVKjXHKuMFkhKr562i0LD8pdl1+s+9LRovmAvGwggt04Drzb
AK437QoyjPKiTnFlg4tOeIuN0Y+GGk2hXOdH7fNw79B9Tq5ENxth8NsnKVlz1zpF
X+aV0zCvAjNWutAUpikqZT/ibpwmM+NJcz3pgzQOq+LfPFskyrv7zkVODEjH3SG3
s4ROvyoWfLPWmX92kJMOkvzyQObZmU2zWJgJbjYRApZiTfbfnH1tE+wxH4ZR5dji
FpEdUJn1yjpYp21Q10khIdsj6q9IvS3RDq0ygc5wfl5111byEsdP12y36lvPTclT
33VHBR1vxr+js9d8FI4wwt/o+7TmAO39DYhLrtn+ZgyRgIBYY65lhEaUtwARAQAB
tCJUaG9tYXMgV291dGVycyA8dGhvbWFzQHB5dGhvbi5vcmc+iQJWBBMBCgBBAhsD
BQsJCAcDBRUKCQgLBRYCAwEAAh4BAheAAhkBFiEEcWlgX2LHUTVtBUomqCHmgOX6
YwUFAmpzLCwFCRz317YACgkQqCHmgOX6YwVQNg/2Osb+sJVEoP+mVlVpRYZlRMfy
gUxwNLG9+CbLzmp/XSQrMMrsy0byL0SVZO0Y2e6bApMLXFfRb6moC/j5kQBsXLfI
AkJ4BVW1bEfzivc7mH65KFGgYtsnf5xDybc5cmpfvl6YDz4RdJQOEIn3qlVkgXyi
VZGCDMJvuUxc1l9LEv8yjGX+CfODvNwReNvuQn/yl9lFUJP+/HRIt0H4L5x7HxgC
2l2hoauew7+E7jyqgLyF0NaavbEV/mmJeqo4M8RfUK09GSf54uTjjIydlR+PATLZ
cG2DEXY+BkVZ/YW35Srotqp4hOkarqEn4pjfvp/GaiOKUOIQR+f70ZlgiY+Ku1/8
dN6y/u/tHjEsIM1ZOt7k6t8IYqxa0k8BUpwa+OXtYLaouaHx1P9D9ElKDwuWAOZ2
zhEgPtW/7Pp8DFsbkrHrtSzEsx8ojlCrIQxgxwuirXriG+Aqjoc4q/GWFl9GRkLX
z3s0WsDUehxXaksleL+/ITWy2zPHgkuEiEHI7+s+Xl7AGjI5DCNFqvQLw58TjUw5
Hkxno3hIYnFr5zrtA0Kldcz3OyEi8oz1bhRgfd+N8XLy9d8f8s0WaQwkVUcQxz1t
CxHhR+dt247ytnsHw7cHE8EmKv5HKuVoMhcpW8K0Cpc4BJcW32bXf6epHa01pbjC
zNfFSuDtdh+5gFVYUIkCHAQQAQoABgUCVQBAXwAKCRCr3QgmYpBWiIznD/45PrPX
gyAt48hPOD5IJEfsfpCAyMtBesjAQXPAkLywbY7Egb+ev4z1HRWCxSoR0/a/C6tc
OJp2O+HjJ9eRCy33oRSTiXgcJI+j1i1eY+gzzyf6uEdIjdStDH+aox1/pXhnwAwp
nosR72xy2tWPIl0SLFlVWHQXgE6W4pXA4sWZmRAvNuWPye6Xlv9fb6v4HZndv0dt
4jgQ3+8Gej+uK/ov9kereDvHO2bVlATnk8u1ORUPo+EQFecvG4Ae72mxaYUsCfem
LPsZCDrzfLmdyvMcYmzXUJe0TsEnyId63vCFCd4XYNjYtxVZU2NC1ayWGWGnb6hg
T5pVIHlwnqmMefPt3Sb1DJLV3MOQZ8Ns/EwRLqoPKZCmyukM/cquj47tXokHpOjx
CP2AS6aNrN7uaRB0LgDc06I6AHr5zc/+eDcdgAD1PsqSJ4+P7YHgXtisx1ZCqFEg
HS4ctRuWbD0FVt3SnkRUzt3ETOKocTqS+WRrQz2QLydoXpe8eFlCVmFs1eCjjMck
sVU2pDD9zYT3zeKIESQG7Xy3mTP+U6c7Q6HkBFUaLD1zHDH2nO7DWz9VPnTr3yuX
SDgh5ZutVtgopeEUyBfoFFBmI7NsT1BOlZfY8XB3r0Uez+aCqUV/0gXmWQGRc/je
oBKECrPr6uVAV6xqWI3e4Xb0AdnAHk05jqU2HrQhVGhvbWFzIFdvdXRlcnMgPHRo
b21hc0B4czRhbGwubmw+iQJUBBMBCgA+AhsDBQsJCAcDBRUKCQgLBRYCAwEAAh4B
AheAFiEEcWlgX2LHUTVtBUomqCHmgOX6YwUFAmpzLDkFCRz317YACgkQqCHmgOX6
YwXMBA//TOwXRYrv9j17K23moluHN/C83MXwx9wBJo+01uTm504XXOUuMTpq6JSs
5cogQV61akOnHR0OYItbbEsL7VMaHQY6K3aibF8LrPqfhrVwD/QiXz/iJuQNCSPa
WgDuz80fJZZj9u4agkR2NlsFqeEboI4bC0FBe0Odw1Gfu4TzEK7Kk31/+jtMNwPD
9o6o3i/3drAhTi4qCqPB2aUjyl5brd2pBnMBNhwNmFJ4NdG+3FNai1KsKSCtEIge
1dx1bQBYHtjy+Prn1yjhCx0s6h3rXpm63iAWZghW3pZODhyvqIbWFMd5uwAuBTwU
s41N7SRgJkF1VKAWLuk8S15lYBDLq7xnr7a/rybZv1yvBK0clAT5pe9+Y6NmWUyZ
/ow99ktPvSB6gpNDAScEueE7Y2UTuZO/OzKsL5pNE9QP8c93ohSNiM86Uul9wfee
4a4GiAIYrvYGYiONNuoRRzG5bwDkLyUuOW9mXP9FUyOnBXzt9BnMB1Xvr1jE5P3M
AuVxyHAaSkQIpcRTMb0vb1HOLecxoWP5AIObIPyIhE63EJEVxJTS3GF6exoHqQMG
S2wT0saYfU9DNwnHX/Mtm+t1Ihfw64tpzciaGTZ8fd8USuSUBsr4HxfAfqoW4qEc
dpjJqHH6eJy5BExZCEWAA6pdv+WJHLQ3VQjGAMci3Rd01pkjMhWJAhwEEAEKAAYF
AlUAQF8ACgkQq90IJmKQVojzERAAiXtWCFxtYtqIhxL5IHiaVW5WkXKPpiYPtjYZ
YCSJEzLEx3MRM4DV0rNx1kbz7QKUBMWB0KXsXFnkzapGGM6rFGkwrQqlKfvG5cHD
7QtajmCcReT/4itc4E0IKRqCXI8aVbwYUT+HEZsG3ikMvJDqexhZJYu8804Z1CAn
b8/elryYKaIV4C3zyvPteP3CDs5ns77e1XoCVhGSV9AQEAH80/VUe/fFzYawIDW3
zd/wRyGr4KOxg2ZxUg6EQpI+9pxt8XV2kGngBCijLopEDgbURGLRxdxI6cB0plbA
bR8iX77OLPSIMgz1zsuDsm6XX5mlcz2fEIu7spgaVd7Tlcr7HNAl0rTa0k73oheg
1xmu2qchX0P8EFfgcxUeVKOhFUKeley4KKhuA4VqG+n3izsjoPjwAFzrgc8xL/Y2
TDRAouyak1D75B81s006FyMwkWaUDLyyLRykFJCNWhy2+ChkyjrcqMOO9SIQyeK2
8SrjfE8t7hwBSCPcXr8Sr00NdtLQG+rZraA8R9j53R1JrNQKmY9V714AbEJnRBiw
9y1S8tF/ixzAl1DrvoMCP5W9TBEqMCVHbCUcVZLfw9D+Ku8qC7TbIdbcrWP31BLY
0Fq4FwpmWv+vdshZsPG2A4F+98oYWwQd6xIDI1jTo6AY42+oydxaIxPV0IqFvFAZ
2hIRo2S0JFRob21hcyBXb3V0ZXJzIDx0d291dGVyc0Bnb29nbGUuY29tPokCHAQQ
AQoABgUCVQBAXwAKCRCr3QgmYpBWiBLTD/92NtklPiu0xYCsqUYQzy2dS9y93UHC
Y0IY7ZPS8k0gmmrxUxwyCARVvLKVy8pCDTw1As8ziOPlwD4QrVxIGMVSKcjM6aEa
1h87ezWcz9UCFFKG5NzP7ixBj0bfFlP3STisQXoa1jjT4x8gNw5QMnI4nnnqYRIU
ZYdsyOru9Kk4pJYMzXG7dHI2mPlGlZ67gsHVtN9w/cF2e+5MeejxJF5YkHwbXyWy
mFvEHB+yvtrqUKtnr+SKXpBiRaiA1UBSAtus1HE+iEaNpfXjyGPT1/kj2dLS+PyK
S61I0B8HF7msoXmbWClwOLAg19C7Gla8CLF53LgIqVjVH5c1+0VjmSyVOJoH9mFM
d2rf6iJct9XlLfbAb9+liM/5FSRHtZCOYR6tqfVy+9j5ZhCWfPOaEo4rGLwQ7vHP
1qkwH3sZn/UTsQvT4gZX8eIZ3QjutzTDTWfIWvxM7aeYCmNjPZFOB8hmnf3CYL4j
5tMwnP19w2HWrYQHOBiIoPwGQxFFZf78F3GlPNYGqDUMNOgF7QxN0+GEh97JjSJ0
P4JUX+nMOcousmrvZsH4IM6KIqhk0I59IjUuPxk7qpXU4z4ofEJzxEC0qTtmrNz4
+kdvDQuJZY09hAbukzQ8xjl7i519Er+s8iApBcxVZ1Kl4pl60OS6S5FkBS6JfyYD
DA2a72R5EJbh/7QiVGhvbWFzIFdvdXRlcnMgPHR3b3V0ZXJzQG1ldGEuY29tPokC
VAQTAQoAPgIbAwULCQgHAwUVCgkICwUWAgMBAAIeAQIXgBYhBHFpYF9ix1E1bQVK
Jqgh5oDl+mMFBQJqcyw5BQkc99e2AAoJEKgh5oDl+mMF7wQQAKSO/ykT+qEttDWD
/wR6j66Ngr5xcMsNFyuos827UfDTjob5hJTBXQtsb4DhS2fmBaBuUNZQTdx1c0i8
4lvULBRXZ4OKrsbmLMlJZoljC/rM2f4QFo1QhtOqh7xWPiLMCmjyJ/FLjw27Oel8
sI+OdgAl0bkHYDFUPSmdZ3+ChcrhWZwBXLfnD3nYlHuC5vMpBvTSDKEa15o47nln
JlOq9h8rbTYQ3zQstZzM0pb/VfS/r6zzTIMa9IWpYXi6toUcpbYGhOTLX+l5JfAl
61VmU+D1oTzzhiVB8xHQ7AbxQSHKCE3D+keeNkGbrS6BdDNBoZQexM0s5J71fIo7
SdgGCJXirIr2paHJ9KUw27fGUVn2bDXOys5o/LXXYgFNKI2rSYz6H/Py93u9oOp3
3MoCyy3q64A+Pbr4IR9+iK5aqdXaxpe/diTIqYOestMuqzV3BOmV9RpFpp1vSVs6
6AB0mqFMj7ThAl1Hx6Fnj3STbKjKo1SlPAnlMobyLB+lXr+lUpJR/ygDfKP7tYzo
ASD/N1yL/b6gI6w6sA3iZ+l5VBWrT/Zmr/RIqXSSWNSqVY3T/cDwLwBlaOf0N+a2
4t701RTPkpLrusumGVx91U5VXOyblYq48IDr1x04lNPvEmVVvrwroT50yCubORvU
Ymj8Cqfy6Ib/2fvTKpTgfLH/7rP7uQINBFUAInYBEADiWltbxZ4OrJEV9+pDNVQr
rjnoKQzsV3vufUV1jQrA14CZQth6JDUqnY8PPEU7Kgk17xpBrMHuM+oa2HT4mAUI
7EaWcC0E/sNCXYytgAv4BwonRzl1dz3o5tnrG13TWf2ACii6mkkg1oDZoRfw/qeF
Aa72o3PzIwELbbDQxgln7fxlV5cZwEJLcAaCB5E7A0/I1JmdblM9UeL5J5rlsITh
6jlRggAypxOjGJ4jdXgDZyJBX2cEREsXRsBp0PUcR4JvrAyDqHzPpUhE+K2TjkPD
vd3LXILo6+GTIZDXIa44/HBWcbfDQItJSYxB6rI0C5+a03bJ6hIxXvgr2Q6mTELP
NK6VcaESAJdYTsRcoLaDyLozgHBibcBoEap6j7PsOKd99azxbZS9BQ3olMB0ZWA1
R9pxhs/xhHt847URzMn8VgbGr4mcNQVGko2wOi7Dpl5EjUSJBPcUQpYjeZ42ZM8G
YhxYuhgY1h2Zp5vimocFvpJ9XjkfhCNPIiM0eJb8uSm4jug2j+8iU0Xw5DDJQW2S
dcjHnsDRVJ0j69/PVyud6D9uDSrMHPlKhhnRdlR++ZgsCgNnT8otqpnXHVn3CItt
7eIrqcTWaOZZ/us5+ZYe7Ef+BsKFcwMN84zCA5gVc1ciaw09Y9fdcDYOuEWuU1bM
DyTGL2FcmuAB+RFzH/zihQARAQABiQI8BBgBCgAmAhsMFiEEcWlgX2LHUTVtBUom
qCHmgOX6YwUFAmpzLHgFCRz32AIACgkQqCHmgOX6YwXJXBAAj/AhrK4T3doXmbWZ
+HfGr8OkM6XxFA22qgc7GkDhH1v/9STmDA6QH2w28O1rLXwSYVfp0LCqYoSYuNBM
XMWjrrz7PLqQYi8EDlnFiPOOyvfOuLuPKvHjpqcBF57HZN4Et/ERFSe9Z0YgVmHc
e6cj0GlvEGsvPUm0MbnbWlJBYZz9IBUCN7WmSHAt/x3LxN3e8/vybD81cPyllq7G
nr4Uz6IFMVDNx0t+pIXvDEv4Ualt56O1L27kuAtEwsAHMFHh/xf9iLKL14FcaefW
8yDqdSeJhfD5SPAhVJxPEkEpyt5R+NN2sakAGnAWd0pcKlP6fmnXeljkJ2KQYhdx
wIb5BPS4JY2kGyOssrZaZxhxXElYgC+I2v24Z6jfObhulPvRY7IQpFNXlQUh+6My
6MyaAP4u71+K85DvS6hmrkouUxcqkcpA+yuUdwjQ/i339i97lAJnDaoa+rVBipO/
gw792SM5OeY5GK/BofuL66KeHaGH3dKfDVK2vhRnLeLHK65WcVXbG9aDcrEM4s4M
sTvxd+GaSD7RQ9Nm1WtNcOnjzLNVPl0kl4qeLa3Ri6CZswaZIUhWlQLjI6j6uddi
AJxOqw3bmhKYis7CFMPJ3zBj4eUyHy8bMNXwsRy8SUrvyOEEB4oANHzZKzUjjQ34
bYDwOlMrYelWs7Rryvm66NZQYSI=
=75vc
-----END PGP PUBLIC KEY BLOCK-----
